humanity-icon-theme/Humanity/apps/22/addressbook.svg

<?xml version="1.0" encoding="UTF-8" standalone="no"?>
<!-- Created with Inkscape (http://www.inkscape.org/) -->
<svg
   xmlns:svg="http://www.w3.org/2000/svg"
   xmlns="http://www.w3.org/2000/svg"
   xmlns:xlink="http://www.w3.org/1999/xlink"
   version="1.0"
   width="22"
   height="22"
   id="svg2613">
  <defs
     id="defs2615">
    <linearGradient
       id="linearGradient3319">
      <stop
         id="stop3321"
         style="stop-color:#af9b7f;stop-opacity:1"
         offset="0" />
      <stop
         id="stop3323"
         style="stop-color:#736148;stop-opacity:1"
         offset="1" />
    </linearGradient>
    <linearGradient
       x1="22.333973"
       y1="11.029935"
       x2="53.453438"
       y2="61.220222"
       id="linearGradient2448"
       xlink:href="#linearGradient3319"
       gradientUnits="userSpaceOnUse"
       gradientTransform="matrix(0.342036,0,0,0.3599577,0.2685518,-0.2805346)" />
    <linearGradient
       id="linearGradient8967">
      <stop
         id="stop8969"
         style="stop-color:#ddcfbd;stop-opacity:1"
         offset="0" />
      <stop
         id="stop8971"
         style="stop-color:#856f50;stop-opacity:1"
         offset="1" />
    </linearGradient>
    <linearGradient
       x1="16.1015"
       y1="9.8888979"
       x2="38.491451"
       y2="45.999996"
       id="linearGradient2446"
       xlink:href="#linearGradient8967"
       gradientUnits="userSpaceOnUse"
       gradientTransform="matrix(0.4753908,0,0,0.5002997,0.2530694,-1.2576396)" />
    <linearGradient
       id="linearGradient8978">
      <stop
         id="stop8980"
         style="stop-color:#4d5459;stop-opacity:0.99607843"
         offset="0" />
      <stop
         id="stop8982"
         style="stop-color:#141b1f;stop-opacity:1"
         offset="1" />
    </linearGradient>
    <linearGradient
       x1="5.4800777"
       y1="25.019028"
       x2="8.5000601"
       y2="25.019028"
       id="linearGradient2443"
       xlink:href="#linearGradient8978"
       gradientUnits="userSpaceOnUse"
       gradientTransform="matrix(0.4285714,0,0,0.5119046,-0.1428573,-1.5476191)" />
    <linearGradient
       id="linearGradient3913">
      <stop
         id="stop3915"
         style="stop-color:#4e555a;stop-opacity:1"
         offset="0" />
      <stop
         id="stop3917"
         style="stop-color:#151c20;stop-opacity:1"
         offset="0.14853084" />
      <stop
         id="stop3919"
         style="stop-color:#9b876c;stop-opacity:1"
         offset="0.15142028" />
      <stop
         id="stop3921"
         style="stop-color:#9b876c;stop-opacity:1"
         offset="0.75216067" />
      <stop
         id="stop3923"
         style="stop-color:#9b876c;stop-opacity:1"
         offset="0.92958075" />
      <stop
         id="stop3925"
         style="stop-color:#c2c2c2;stop-opacity:1"
         offset="0.93988967" />
      <stop
         id="stop3927"
         style="stop-color:#c2c2c2;stop-opacity:1"
         offset="1" />
    </linearGradient>
    <linearGradient
       x1="5.7542129"
       y1="5.2438145"
       x2="55.455276"
       y2="4.7322001"
       id="linearGradient2430"
       xlink:href="#linearGradient3913"
       gradientUnits="userSpaceOnUse"
       gradientTransform="matrix(0.3554357,0,0,0.4825071,0.2892151,0.1528862)" />
    <linearGradient
       id="linearGradient2346">
      <stop
         id="stop2348"
         style="stop-color:#eeeeee;stop-opacity:1"
         offset="0" />
      <stop
         id="stop2350"
         style="stop-color:#d9d9da;stop-opacity:1"
         offset="1" />
    </linearGradient>
    <linearGradient
       x1="24.62738"
       y1="3.1234391"
       x2="24.640038"
       y2="4.882647"
       id="linearGradient2428"
       xlink:href="#linearGradient2346"
       gradientUnits="userSpaceOnUse"
       gradientTransform="matrix(0.4982332,0,0,0.9932654,-0.1727075,-2.4227551)" />
  </defs>
  <g
     id="layer1">
    <rect
       width="16.506397"
       height="19.505989"
       rx="0.15116757"
       ry="0.15752396"
       x="3"
       y="2"
       id="rect2719"
       style="fill:url(#linearGradient2446);fill-opacity:1;stroke:url(#linearGradient2448);stroke-width:0.98801893;stroke-linecap:round;stroke-linejoin:round;stroke-miterlimit:2;stroke-dasharray:none;stroke-dashoffset:0;stroke-opacity:1;display:inline" />
    <path
       d="M 2,1.5 C 3.2381813,2.251217 4.3465828,1.9394849 5,2.017 L 5,22 C 5,22 3.1019293,22 2.6124364,22 C 2.6124364,22 2,22 2,21.398207 L 2,1.5 z"
       id="path2721"
       style="fill:url(#linearGradient2443);fill-opacity:1;stroke:none;display:inline" />
    <path
       d="M 5.3330608,1.4767501 L 19.014104,1.460603"
       id="path4743"
       style="opacity:0.2;fill:#ffffff;fill-rule:evenodd;stroke:#ffffff;stroke-width:0.9999423;stroke-linecap:square;stroke-linejoin:round;stroke-miterlimit:2;stroke-dasharray:none;stroke-opacity:1;display:inline" />
    <path
       d="M 19.48563,2.064 C 19.339047,1.4238812 19.43041,1.1252622 19.349447,0.5147674 C 19.349447,0.5147674 5.1621307,0.5147674 4.3436955,0.5147674 C 3.5644733,0.5147674 2.7945715,0.6635004 2.5773307,1.2686854 C 2.5650937,1.3027804 2.5515687,1.3371384 2.5440097,1.3742335 C 2.3446951,1.9980995 3.1701538,2.4860269 4.4322608,2.4860269 C 5.2970134,2.4860269 4.8715202,2.4860269 5.1839958,2.4860269"
       id="path2723"
       style="fill:url(#linearGradient2428);fill-opacity:1;stroke:url(#linearGradient2430);stroke-width:1.02874053;stroke-linecap:butt;stroke-linejoin:round;stroke-miterlimit:2;stroke-dasharray:none;stroke-dashoffset:0;stroke-opacity:1;display:inline" />
    <path
       d="M 19.503999,2.496426 L 4.9960013,2.496426"
       id="path4494"
       style="fill:#a18d72;fill-opacity:1;fill-rule:evenodd;stroke:#a18d72;stroke-width:1.00714803;stroke-linecap:butt;stroke-linejoin:miter;stroke-miterlimit:2;stroke-dasharray:none;stroke-opacity:1;display:inline" />
    <path
       d="M 10.723982,13.055175 C 10.723978,13.599844 10.841623,14.029375 11.076924,14.343773 C 11.316735,14.658176 11.640266,14.815375 12.047511,14.815373 C 12.450219,14.815375 12.771485,14.658176 13.011312,14.343773 C 13.251124,14.024948 13.371032,13.595416 13.37104,13.055175 C 13.371032,12.51937 13.248861,12.09648 13.004525,11.786501 C 12.764696,11.472107 12.441168,11.314906 12.033936,11.314901 C 11.63574,11.314906 11.316735,11.472107 11.076924,11.786501 C 10.841623,12.09648 10.723978,12.51937 10.723982,13.055175 M 13.506787,15.054496 C 13.371032,15.368896 13.151576,15.61466 12.848415,15.791787 C 12.549766,15.964486 12.199085,16.050836 11.79638,16.050835 C 11.018093,16.050836 10.384609,15.77629 9.895927,15.227195 C 9.411761,14.673674 9.169679,13.954097 9.169683,13.06846 C 9.169679,12.182828 9.414022,11.463251 9.902716,10.909724 C 10.391397,10.356208 11.022617,10.079448 11.79638,10.07944 C 12.199085,10.079448 12.549766,10.16801 12.848415,10.345132 C 13.151576,10.522264 13.371032,10.768027 13.506787,11.082422 L 13.506787,10.212285 L 14.925339,10.212285 L 14.925339,14.815373 C 15.486415,14.731241 15.92759,14.467764 16.248866,14.024945 C 16.570124,13.577701 16.730757,13.006468 16.730769,12.311241 C 16.730757,11.868428 16.665148,11.454395 16.533936,11.069139 C 16.402703,10.679463 16.203608,10.322995 15.936651,9.9997336 C 15.506776,9.4595026 14.968317,9.0432538 14.321266,8.7509876 C 13.678724,8.4587364 12.981892,8.3126055 12.23077,8.312598 C 11.705877,8.3126055 11.203612,8.3812423 10.723982,8.5185074 C 10.244339,8.651361 9.8009,8.8484154 9.393665,9.1096693 C 8.723977,9.5436376 8.201354,10.106016 7.825791,10.796805 C 7.45475,11.483177 7.269229,12.227108 7.269231,13.028605 C 7.269229,13.688407 7.389138,14.308351 7.628959,14.88844 C 7.873301,15.464104 8.223978,15.973343 8.680996,16.41616 C 9.133479,16.85012 9.651577,17.180018 10.235295,17.405857 C 10.823524,17.636122 11.45022,17.751253 12.115385,17.751254 C 12.685512,17.751253 13.255649,17.647193 13.825792,17.439068 C 14.395918,17.230944 14.882342,16.949755 15.285067,16.595501 L 16.011311,17.671548 C 15.44569,18.101079 14.828044,18.428763 14.15837,18.654603 C 13.493204,18.884866 12.816734,18.999997 12.12896,19 C 11.291847,18.999997 10.502256,18.853869 9.76018,18.561613 C 9.018095,18.273778 8.357463,17.853102 7.77828,17.299581 C 7.199095,16.746059 6.757917,16.106188 6.454752,15.379966 C 6.151582,14.649319 6,13.865535 6,13.028605 C 6,12.222681 6.153844,11.454395 6.461538,10.723741 C 6.769231,9.9930976 7.208143,9.3510126 7.77828,8.7974834 C 8.348414,8.2483962 9.011311,7.8232925 9.766968,7.522168 C 10.527142,7.2210617 11.314473,7.0705042 12.12896,7.0704946 C 13.142525,7.0705042 14.063339,7.2609151 14.891402,7.6417282 C 15.719446,8.0181341 16.411753,8.562798 16.968324,9.2757266 C 17.307681,9.7096946 17.563334,10.181295 17.735295,10.690528 C 17.911753,11.195346 17.999987,11.726727 18,12.284674 C 17.999987,13.484711 17.631208,14.416842 16.893664,15.081064 C 16.156097,15.745293 15.115375,16.077406 13.771492,16.077405 L 13.506787,16.077405 L 13.506787,15.054496"
       id="path2781"
       style="font-size:23.55376053px;font-style:normal;font-weight:normal;opacity:0.4;fill:#ffffff;fill-opacity:1;stroke:none;stroke-width:1;stroke-linecap:butt;stroke-linejoin:miter;stroke-miterlimit:0;stroke-dasharray:none;stroke-opacity:1;display:inline;font-family:Bitstream Vera Sans" />
    <path
       d="M 10.723982,11.984681 C 10.723978,12.52935 10.841623,12.958882 11.076924,13.27328 C 11.316735,13.587684 11.640266,13.744882 12.047511,13.744879 C 12.450219,13.744882 12.771485,13.587684 13.011312,13.27328 C 13.251124,12.954454 13.371032,12.524921 13.37104,11.984681 C 13.371032,11.448874 13.248861,11.025985 13.004525,10.716007 C 12.764696,10.401612 12.441168,10.244412 12.033936,10.244408 C 11.63574,10.244412 11.316735,10.401612 11.076924,10.716007 C 10.841623,11.025985 10.723978,11.448874 10.723982,11.984681 M 13.506787,13.984002 C 13.371032,14.298404 13.151576,14.544166 12.848415,14.721294 C 12.549766,14.893992 12.199085,14.980342 11.79638,14.980341 C 11.018093,14.980342 10.384609,14.705795 9.895927,14.1567 C 9.411761,13.60318 9.169679,12.883603 9.169683,11.997964 C 9.169679,11.112333 9.414022,10.392757 9.902716,9.8392276 C 10.391397,9.2857126 11.022617,9.008953 11.79638,9.0089455 C 12.199085,9.008953 12.549766,9.0975149 12.848415,9.2746366 C 13.151576,9.4517706 13.371032,9.6975316 13.506787,10.011926 L 13.506787,9.1417916 L 14.925339,9.1417916 L 14.925339,13.744879 C 15.486415,13.660747 15.92759,13.397271 16.248866,12.95445 C 16.570124,12.507208 16.730757,11.935974 16.730769,11.240746 C 16.730757,10.797935 16.665148,10.383899 16.533936,9.9986426 C 16.402703,9.6089686 16.203608,9.2525026 15.936651,8.9292387 C 15.506776,8.3890077 14.968317,7.9727591 14.321266,7.6804929 C 13.678724,7.3882417 12.981892,7.2421118 12.23077,7.2421044 C 11.705877,7.2421118 11.203612,7.3107487 10.723982,7.4480138 C 10.244339,7.5808663 9.8009,7.7779207 9.393665,8.0391768 C 8.723977,8.4731431 8.201354,9.0355205 7.825791,9.7263096 C 7.45475,10.412682 7.269229,11.156615 7.269231,11.958112 C 7.269229,12.617912 7.389138,13.237856 7.628959,13.817947 C 7.873301,14.393608 8.223978,14.902849 8.680996,15.345664 C 9.133479,15.779627 9.651577,16.109527 10.235295,16.335363 C 10.823524,16.565627 11.45022,16.68076 12.115385,16.680761 C 12.685512,16.68076 13.255649,16.576697 13.825792,16.368574 C 14.395918,16.16045 14.882342,15.879261 15.285067,15.525006 L 16.011311,16.601053 C 15.44569,17.030585 14.828044,17.358271 14.15837,17.584108 C 13.493204,17.814372 12.816734,17.929504 12.12896,17.929506 C 11.291847,17.929504 10.502256,17.783374 9.76018,17.491117 C 9.018095,17.203285 8.357463,16.782606 7.77828,16.229087 C 7.199095,15.675565 6.757917,15.035696 6.454752,14.309472 C 6.151582,13.578825 6,12.795039 6,11.958112 C 6,11.152188 6.153844,10.383899 6.461538,9.6532446 C 6.769231,8.9226027 7.208143,8.2805174 7.77828,7.7269887 C 8.348414,7.1779026 9.011311,6.7527988 9.766968,6.4516743 C 10.527142,6.1505659 11.314473,6.0000095 12.12896,5.9999999 C 13.142525,6.0000095 14.063339,6.1904214 14.891402,6.5712356 C 15.719446,6.9476394 16.411753,7.4923044 16.968324,8.2052328 C 17.307681,8.6392002 17.563334,9.1108008 17.735295,9.6200336 C 17.911753,10.12485 17.999987,10.656232 18,11.214177 C 17.999987,12.414217 17.631208,13.346345 16.893664,14.010572 C 16.156097,14.674799 15.115375,15.00691 13.771492,15.00691 L 13.506787,15.00691 L 13.506787,13.984002"
       id="path2779"
       style="font-size:23.55376053px;font-style:normal;font-weight:normal;fill:#746956;fill-opacity:1;stroke:none;stroke-width:1;stroke-linecap:butt;stroke-linejoin:miter;stroke-miterlimit:0;stroke-dasharray:none;stroke-opacity:1;display:inline;font-family:Bitstream Vera Sans" />
    <path
       d="M 18.980826,3.496426 L 4.9857336,3.496426"
       id="path3427"
       style="opacity:0.4;fill:none;fill-opacity:1;fill-rule:evenodd;stroke:#ffffff;stroke-width:1.00714803;stroke-linecap:butt;stroke-linejoin:miter;stroke-miterlimit:2;stroke-dasharray:none;stroke-opacity:1;display:inline" />
  </g>
</svg>

<?xml version="1.0" encoding="UTF-8" standalone="no"?>
<!-- Created with Inkscape (http://www.inkscape.org/) -->
<svg id="svg2613" xmlns="http://www.w3.org/2000/svg" height="22" width="22" version="1.0" xmlns:xlink="http://www.w3.org/1999/xlink">
 <defs id="defs2615">
  <linearGradient id="linearGradient2448" y2="61.22" gradientUnits="userSpaceOnUse" x2="53.453" gradientTransform="matrix(.34204 0 0 .35996 .26855 -.28053)" y1="11.03" x1="22.334">
   <stop id="stop3321" style="stop-color:#af9b7f" offset="0"/>
   <stop id="stop3323" style="stop-color:#736148" offset="1"/>
  </linearGradient>
  <linearGradient id="linearGradient2446" y2="46" gradientUnits="userSpaceOnUse" x2="38.491" gradientTransform="matrix(.47539 0 0 .50030 .25307 -1.2576)" y1="9.8889" x1="16.102">
   <stop id="stop8969" style="stop-color:#ddcfbd" offset="0"/>
   <stop id="stop8971" style="stop-color:#856f50" offset="1"/>
  </linearGradient>
  <linearGradient id="linearGradient2443" y2="25.019" gradientUnits="userSpaceOnUse" x2="8.5001" gradientTransform="matrix(.42857 0 0 .51190 -.14286 -1.5476)" y1="25.019" x1="5.4801">
   <stop id="stop8980" style="stop-color:#4d5459;stop-opacity:.99608" offset="0"/>
   <stop id="stop8982" style="stop-color:#141b1f" offset="1"/>
  </linearGradient>
  <linearGradient id="linearGradient2430" y2="4.7322" gradientUnits="userSpaceOnUse" x2="55.455" gradientTransform="matrix(.35544 0 0 .48251 .28922 .15289)" y1="5.2438" x1="5.7542">
   <stop id="stop3915" style="stop-color:#4e555a" offset="0"/>
   <stop id="stop3917" style="stop-color:#151c20" offset=".14853"/>
   <stop id="stop3919" style="stop-color:#9b876c" offset=".15142"/>
   <stop id="stop3921" style="stop-color:#9b876c" offset=".75216"/>
   <stop id="stop3923" style="stop-color:#9b876c" offset=".92958"/>
   <stop id="stop3925" style="stop-color:#c2c2c2" offset=".93989"/>
   <stop id="stop3927" style="stop-color:#c2c2c2" offset="1"/>
  </linearGradient>
  <linearGradient id="linearGradient2428" y2="4.8826" gradientUnits="userSpaceOnUse" x2="24.64" gradientTransform="matrix(.49823 0 0 .99327 -.17271 -2.4228)" y1="3.1234" x1="24.627">
   <stop id="stop2348" style="stop-color:#eee" offset="0"/>
   <stop id="stop2350" style="stop-color:#d9d9da" offset="1"/>
  </linearGradient>
 </defs>
 <g id="layer1">
  <rect id="rect2719" style="stroke-linejoin:round;stroke:url(#linearGradient2448);stroke-linecap:round;stroke-miterlimit:2;stroke-width:.98802;fill:url(#linearGradient2446)" rx=".15117" ry=".15752" height="19.506" width="16.506" y="2" x="3"/>
  <path id="path2721" style="fill:url(#linearGradient2443)" d="m2 1.5c1.2382 0.7512 2.3466 0.4395 3 0.517v19.983h-2.3876s-0.6124 0-0.6124-0.602v-19.898z"/>
  <path id="path4743" style="opacity:.2;stroke-linejoin:round;fill-rule:evenodd;stroke:#fff;stroke-linecap:square;stroke-miterlimit:2;stroke-width:.99994;fill:#fff" d="m5.3331 1.4768l13.681-0.0162"/>
  <path id="path2723" style="stroke-linejoin:round;stroke:url(#linearGradient2430);stroke-miterlimit:2;stroke-width:1.0287;fill:url(#linearGradient2428)" d="m19.486 2.064c-0.147-0.6401-0.056-0.9387-0.137-1.5492 0-0.00003-14.187-0.00003-15.005-0.00003-0.7795 0-1.5494 0.14873-1.7667 0.75393-0.0122 0.0341-0.0257 0.0684-0.0333 0.1055-0.1993 0.6239 0.6262 1.1118 1.8883 1.1118h0.7517"/>
  <path id="path4494" style="fill-rule:evenodd;stroke:#a18d72;stroke-miterlimit:2;stroke-width:1.0071;fill:#a18d72" d="m19.504 2.4964h-14.508"/>
  <path id="path2781" style="opacity:.4;fill:#fff" d="m10.724 13.055c0 0.545 0.118 0.974 0.353 1.289 0.24 0.314 0.563 0.471 0.971 0.471 0.402 0 0.723-0.157 0.963-0.471 0.24-0.319 0.36-0.749 0.36-1.289 0-0.536-0.122-0.959-0.366-1.268-0.24-0.315-0.564-0.472-0.971-0.472-0.398 0-0.717 0.157-0.957 0.472-0.235 0.309-0.353 0.732-0.353 1.268m2.783 1.999c-0.136 0.315-0.355 0.561-0.659 0.738-0.298 0.172-0.649 0.259-1.052 0.259-0.778 0-1.411-0.275-1.9001-0.824-0.4841-0.553-0.7262-1.273-0.7262-2.159 0-0.885 0.2443-1.605 0.733-2.158 0.4883-0.554 1.1203-0.831 1.8933-0.831 0.403 0 0.754 0.089 1.052 0.266 0.304 0.177 0.523 0.423 0.659 0.737v-0.87h1.418v4.603c0.561-0.084 1.003-0.347 1.324-0.79 0.321-0.447 0.482-1.019 0.482-1.714 0-0.443-0.066-0.857-0.197-1.242-0.131-0.39-0.33-0.746-0.597-1.0693-0.43-0.5402-0.969-0.9564-1.616-1.2487-0.642-0.2923-1.339-0.4384-2.09-0.4384-0.525 0-1.027 0.0686-1.507 0.2059-0.48 0.1329-0.9231 0.3299-1.3303 0.5912-0.6697 0.4339-1.1923 0.9963-1.5679 1.6873-0.371 0.686-0.5566 1.43-0.5566 2.232 0 0.659 0.1199 1.279 0.3598 1.859 0.2443 0.576 0.595 1.085 1.052 1.528 0.4525 0.434 0.9706 0.764 1.554 0.99 0.589 0.23 1.215 0.345 1.88 0.345 0.571 0 1.141-0.104 1.711-0.312s1.056-0.489 1.459-0.843l0.726 1.076c-0.565 0.429-1.183 0.757-1.853 0.983-0.665 0.23-1.341 0.345-2.029 0.345-0.837 0-1.627-0.146-2.3688-0.438-0.7421-0.288-1.4027-0.709-1.9819-1.262-0.5792-0.554-1.0204-1.194-1.3235-1.92-0.3032-0.731-0.4548-1.514-0.4548-2.351 0-0.806 0.1538-1.575 0.4615-2.305 0.3077-0.7309 0.7466-1.373 1.3168-1.9265 0.5701-0.5491 1.233-0.9742 1.9887-1.2753 0.76-0.3011 1.547-0.4517 2.362-0.4517 1.014 0 1.934 0.1904 2.762 0.5712 0.828 0.3764 1.521 0.9211 2.077 1.634 0.34 0.434 0.595 0.9053 0.767 1.4153 0.177 0.504 0.265 1.036 0.265 1.594 0 1.2-0.369 2.132-1.106 2.796-0.738 0.664-1.779 0.996-3.123 0.996h-0.264v-1.023"/>
  <path id="path2779" style="fill:#746956" d="m10.724 11.985c0 0.544 0.118 0.974 0.353 1.288 0.24 0.315 0.563 0.472 0.971 0.472 0.402 0 0.723-0.157 0.963-0.472 0.24-0.319 0.36-0.748 0.36-1.288 0-0.536-0.122-0.959-0.366-1.269-0.24-0.314-0.564-0.472-0.971-0.472-0.398 0-0.717 0.158-0.957 0.472-0.235 0.31-0.353 0.733-0.353 1.269m2.783 1.999c-0.136 0.314-0.355 0.56-0.659 0.737-0.298 0.173-0.649 0.259-1.052 0.259-0.778 0-1.411-0.274-1.9001-0.823-0.4841-0.554-0.7262-1.273-0.7262-2.159s0.2443-1.605 0.733-2.1588c0.4883-0.5535 1.1203-0.8302 1.8933-0.8303 0.403 0.0001 0.754 0.0886 1.052 0.2657 0.304 0.1772 0.523 0.4229 0.659 0.7374v-0.8702h1.418v4.6032c0.561-0.084 1.003-0.348 1.324-0.791 0.321-0.447 0.482-1.018 0.482-1.713 0-0.443-0.066-0.857-0.197-1.2424-0.131-0.3896-0.33-0.7461-0.597-1.0694-0.43-0.5402-0.969-0.9564-1.616-1.2487-0.642-0.2923-1.339-0.4384-2.09-0.4384-0.525 0-1.027 0.0686-1.507 0.2059-0.48 0.1329-0.9231 0.3299-1.3303 0.5912-0.6697 0.4339-1.1923 0.9963-1.5679 1.6871-0.371 0.6867-0.5566 1.4307-0.5566 2.2317 0 0.66 0.1199 1.28 0.3598 1.86 0.2443 0.576 0.595 1.085 1.052 1.528 0.4525 0.434 0.9706 0.764 1.554 0.989 0.589 0.231 1.215 0.346 1.88 0.346 0.571 0 1.141-0.104 1.711-0.312 0.57-0.209 1.056-0.49 1.459-0.844l0.726 1.076c-0.565 0.43-1.183 0.757-1.853 0.983-0.665 0.23-1.341 0.346-2.029 0.346-0.837 0-1.627-0.147-2.3688-0.439-0.7421-0.288-1.4027-0.708-1.9819-1.262-0.5792-0.553-1.0204-1.193-1.3235-1.92-0.3032-0.73-0.4548-1.514-0.4548-2.351 0-0.806 0.1538-1.574 0.4615-2.3048 0.3077-0.7306 0.7466-1.3727 1.3168-1.9262 0.5701-0.5491 1.233-0.9742 1.9887-1.2753 0.76-0.3011 1.547-0.4517 2.362-0.4517 1.014 0 1.934 0.1904 2.762 0.5712 0.828 0.3764 1.521 0.9211 2.077 1.634 0.34 0.434 0.595 0.9056 0.767 1.4148 0.177 0.505 0.265 1.036 0.265 1.594 0 1.2-0.369 2.132-1.106 2.797-0.738 0.664-1.779 0.996-3.123 0.996h-0.264v-1.023"/>
  <path id="path3427" style="opacity:.4;stroke:#fff;stroke-miterlimit:2;stroke-width:1.0071;fill:none" d="m18.981 3.4964h-13.995"/>
 </g>
</svg>
